X:1
T:Title
%%score { ( 1 3 5 ) | ( 2 4 ) }
L:1/8
Q:1/4=100
M:4/4
K:Eb
V:1 treble nm="Grand Piano"
V:3 treble 
V:5 treble 
V:2 bass 
V:4 bass 
V:1
 [EG]2 [EG]2 FG[DA]F | E4 z4 | F2 F2 F2 F2 | _G4 z4 | A4 G4 | c4 z4 | %6
w: Charles~H.~Gabriel * * * * *||||||
 G2 G2 .[EG]2[K:bass] .[F,=A,CE]2 | F6[K:treble] z2 | G2 [EG]2 FG[DA]F | E4 z4 | %10
w: ||||
 [B,DF]2 [B,DF]2 [B,DF]2 [B,DF]2 | [=A,_G]2- [A,-DG-][A,CG] =G2 EE | A2- [A,EA]2 [EG]2 EE | %13
w: |||
 c2- [Ec]2 B2 A2 | G2 [EG]2 [FB]A[DG]F | E6 z2 | c2 c2 c>e d>c | B6 z2 | z4 z2 B2 | %19
w: ||||||
 z2 E2 z z/ B/ =A>G | z2 E2 z z/ B/ =A>G | z2 E2 z z/ B/ =A>G | F2 [EG]2 [E=A]2 [Fe]2 | %23
w: ||||
 [Fd]6[K:bass] z2 | e4 z4 | c4 z4 | A2 [DA]2 [EG]2 [EG]2 |[M:2/4] [FB]>[FA] [EG]>[DF] | G>E G>B | %29
w: ||||||
[M:4/4] e4 z4 | c4 z4 | A2 [B,DA]2 [B,EG]2 [B,EG]2 |[M:2/4] [B,FB]>[B,FA] [B,EG]>[B,DF] | [G,E]4 |] %34
w: |||||
V:2
 [E,B,]2 [B,,B,]2 [D,B,]2 [B,,B,]2 | [E,G,B,]2 [B,,G,]2 [E,G,]2 [B,,E,G,]2 | %2
 [D,A,B,]2 [B,,A,B,]2 [D,A,B,]2 [B,,A,B,]2 | .C2 z2 z4 | C,2 C,2 [B,,B,]2 [B,,B,]2 | %5
 [A,,A,]2 A,2 [G,B,E]2 [F,B,D]2 | [E,B,E]2 [E,B,E]2 z F z G | B,,2 C,2 B,,2 C2 | %8
 [E,B,E]2 [B,,B,]2 [D,B,]2 [B,,B,]2 | [E,G,B,]2 [B,,G,]2 [E,G,]2 [B,,G,B,]2 | %10
 B,,C,D,C, B,,A,,G,,F,, | z E z2 [E,G,B,E]2 [_D,G,B,]2 | C,2 C,2 [B,,B,]2 [B,,B,]2 | %13
 [A,,A,]2 A,2 [G,B,E]2 [F,B,D]2 | [E,B,E]2 [B,,B,]2 [D,B,]2 [B,,A,B,]2 | %15
 [E,G,B,]2 [B,,G,]2 [E,G,]2 z2 | [A,E]2 [A,E]2 [A,E]2 z2 | [G,E]2 G,2 G,2 z2 | %18
 [F,B,D]2 [B,,B,]2 [F,B,D]2 [B,,B,]2 | [E,B,E]2 [E,B,]2 [E,B,]2 [E,B,E]2 | %20
 [D,B,]2 [C,=A,]2 [B,,B,]2 [E,B,E]2 | [D,B,]2 [C,=A,]2 [B,,B,]2 [E,B,E]2 | %22
 [D,B,]2 [C,=A,]2 [F,C]2 [F,C]2 | [B,,B,]6 z2 | [CEG]2 C2 [B,DG]3- [B,DG]/[B,DG]/ | %25
 z4[K:bass] E2 z2 | [F,B,D]2 [B,,B,]2 [E,B,]2 [B,,B,]2 |[M:2/4] [D,B,]>[D,B,] [B,,B,]>[B,,B,] | %28
 [E,B,E]2 z2 |[M:4/4][K:treble] [CEG]2 C2 [B,DG]3- [B,DG]/[B,DG]/ | z4[K:bass] E2 z2 | %31
 [F,B,D]2 B,,2 E,2 B,,2 |[M:2/4] D,>D, B,,>B,, | E,4 |] %34
V:3
 x8 | z2 B,2 B,2 E2 | x8 | z EDC =G2 EE | [A,E]2 [A,E]2 E2 EE | E2 E2 B2 A2 | x6[K:bass] x2 | %7
 [F,B,D]2 [F,=A,E]2 [F,B,D]2[K:treble] _G2 | x8 | z2 B,2 B,2 E2 | x8 | .C2 z2 z4 | [A,E]2 z2 z4 | %13
 E2 z2 z4 | x8 | z2 B,2 B,2 z2 | x8 | z2 E2 E>d c>B | A2 [DA]2 A>c D->[DA] | G6 z2 | F6 z2 | %21
 F6 z2 | x8 | z z/[K:bass] C,/ D,>E, F,>G, A,>B, | z2 G2 d2 B>d | z2 A2 B2 E>B | x8 |[M:2/4] x4 | %28
 x4 |[M:4/4] z2 G2 d2 B>d | z2 A2 B2 E>B | x8 |[M:2/4] x4 | x4 |] %34
V:4
 x8 | x8 | x8 | [E,=A,]4 [E,B,E]2 [_D,G,B,]2 | x8 | x8 | z4 [C,=A,]2 F,,2 | x8 | x8 | x8 | x8 | %11
 E,,4 z4 | x8 | x8 | x8 | x8 | x8 | x8 | x8 | x8 | x8 | x8 | x8 | x8 | x8 | %25
 [A,EA]2[K:bass] [A,C]2 G,3- G,/[G,E]/ | x8 |[M:2/4] x4 | x4 |[M:4/4][K:treble] x8 | %30
 [A,EA]2[K:bass] [A,C]2 G,3- G,/[G,E]/ | x8 |[M:2/4] x4 | x4 |] %34
V:5
 x8 | x8 | x8 | x8 | x8 | x8 | x6[K:bass] x2 | x6[K:treble] x2 | x8 | x8 | x8 | x8 | x8 | x8 | x8 | %15
 x8 | x8 | x8 | x8 | z4 E2 z2 | z4 D2 z2 | z4 D2 z2 | x8 | x3/2[K:bass] x13/2 | x8 | x8 | x8 | %27
[M:2/4] x4 | x4 |[M:4/4] x8 | x8 | x8 |[M:2/4] x4 | x4 |] %34

